static/img/menus/ico-zone.svg

<svg width="20" height="20" viewBox="0 0 20 20" fill="none" xmlns="http://www.w3.org/2000/svg">
<path d="M13 13.8C13.3917 13.8646 13.7767 13.965 14.15 14.1C14.196 14.1269 14.2471 14.144 14.3 14.15L14.7 14.25C14.8062 14.2865 14.9071 14.3369 15 14.4C15.1752 14.4851 15.3425 14.5855 15.5 14.7C15.6382 14.7871 15.755 14.9043 15.8416 15.0428C15.9282 15.1813 15.9823 15.3376 16 15.5C16 15.9667 15.5667 16.4 14.7 16.8C14.5616 16.8353 14.4275 16.8856 14.3 16.95C13.8734 17.0906 13.4394 17.2074 13 17.3C12.4 17.3667 11.7667 17.4167 11.1 17.45C10.7333 17.4834 10.3667 17.5 10 17.5H9.6C9.23333 17.5 8.88333 17.4834 8.55 17.45C8.02942 17.4184 7.51157 17.3515 7 17.25C6.59115 17.1895 6.18922 17.0891 5.8 16.95H5.75C4.58333 16.5167 4 16.0334 4 15.5C4.00034 15.398 4.01723 15.2967 4.05 15.2C4.0797 15.1061 4.13108 15.0205 4.2 14.95C4.42249 14.7454 4.67553 14.5767 4.95 14.45C5.11667 14.3834 5.3 14.3 5.5 14.2C5.60205 14.1997 5.70336 14.1828 5.8 14.15C6.18205 13.9789 6.58584 13.8611 7 13.8" fill="#0057A2"/>
<path d="M13 13.8C13.3917 13.8646 13.7767 13.965 14.15 14.1C14.196 14.1269 14.2471 14.144 14.3 14.15L14.7 14.25C14.8062 14.2865 14.9071 14.3369 15 14.4C15.1752 14.4851 15.3425 14.5855 15.5 14.7C15.6382 14.7871 15.755 14.9043 15.8416 15.0428C15.9282 15.1813 15.9823 15.3376 16 15.5C16 15.9667 15.5667 16.4 14.7 16.8C14.5616 16.8353 14.4275 16.8856 14.3 16.95C13.8734 17.0906 13.4394 17.2074 13 17.3C12.4 17.3667 11.7667 17.4167 11.1 17.45C10.7333 17.4834 10.3667 17.5 10 17.5H9.6C9.23333 17.5 8.88333 17.4834 8.55 17.45C8.02942 17.4184 7.51157 17.3515 7 17.25C6.59115 17.1895 6.18922 17.0891 5.8 16.95H5.75C4.58333 16.5167 4 16.0334 4 15.5C4.00034 15.398 4.01723 15.2967 4.05 15.2C4.0797 15.1061 4.13108 15.0205 4.2 14.95C4.42249 14.7454 4.67553 14.5767 4.95 14.45C5.11667 14.3834 5.3 14.3 5.5 14.2C5.60205 14.1997 5.70336 14.1828 5.8 14.15C6.18205 13.9789 6.58584 13.8611 7 13.8" stroke="#57B1FF" stroke-linecap="round" stroke-linejoin="round"/>
<path d="M14.4 5.05004C14.1873 4.63181 13.9182 4.24484 13.6 3.90004C12.6305 2.97858 11.3373 2.47568 9.99997 2.50004C8.79801 2.47745 7.62758 2.88533 6.69997 3.65004L6.64997 3.70004C6.57337 3.7747 6.48963 3.84169 6.39997 3.90004C6.00432 4.32674 5.68318 4.8169 5.44997 5.35004C5.14124 6.02408 4.98747 6.75875 4.99997 7.50004V7.65004C5.00096 8.27315 5.12517 8.88992 5.36543 9.46484C5.6057 10.0398 5.95729 10.5615 6.39997 11C6.64126 11.2462 6.90964 11.4642 7.19997 11.65L7.59997 11.95C7.7062 11.9865 7.80709 12.0369 7.89997 12.1C7.98622 12.145 8.0697 12.1951 8.14997 12.25C8.2562 12.2865 8.35709 12.3369 8.44997 12.4L8.74997 12.6C8.88947 12.7095 9.02299 12.8263 9.14997 12.95C9.19089 12.9945 9.22463 13.0451 9.24997 13.1C9.34513 13.2256 9.4288 13.3595 9.49997 13.5C9.56444 13.6275 9.61474 13.7616 9.64997 13.9C9.65122 13.9192 9.65629 13.9379 9.66487 13.9551C9.67346 13.9723 9.68539 13.9875 9.69997 14C9.7349 14.0466 9.7802 14.0844 9.83227 14.1104C9.88434 14.1365 9.94176 14.15 9.99997 14.15C10.0582 14.15 10.1156 14.1365 10.1677 14.1104C10.2197 14.0844 10.265 14.0466 10.3 14C10.3146 13.9875 10.3265 13.9723 10.3351 13.9551C10.3437 13.9379 10.3487 13.9192 10.35 13.9C10.4144 13.7726 10.4647 13.6385 10.5 13.5C10.5711 13.3595 10.6548 13.2256 10.75 13.1C10.7819 13.0348 10.8347 12.982 10.9 12.95C10.999 12.817 11.1169 12.6991 11.25 12.6C11.3706 12.5406 11.4875 12.4738 11.6 12.4C11.6704 12.3311 11.756 12.2797 11.85 12.25C11.9429 12.1869 12.0437 12.1365 12.15 12.1C12.2204 12.0311 12.306 11.9797 12.4 11.95C12.8358 11.6814 13.2385 11.3626 13.6 11C14.0599 10.5431 14.4213 9.99683 14.6621 9.39489C14.9029 8.79296 15.0179 8.1481 15 7.50004V7.30004C14.9792 6.51336 14.7737 5.7426 14.4 5.05004ZM12 7.50004C12.0043 7.7699 11.9534 8.03779 11.8502 8.28718C11.747 8.53657 11.5938 8.76217 11.4 8.95004C11.2163 9.13217 10.9974 9.2749 10.7567 9.36948C10.516 9.46405 10.2585 9.50848 9.99997 9.50004C9.74147 9.50848 9.48396 9.46405 9.24323 9.36948C9.0025 9.2749 8.78361 9.13217 8.59997 8.95004C8.40619 8.76217 8.25298 8.53657 8.14978 8.28718C8.04658 8.03779 7.9956 7.7699 7.99997 7.50004C7.99913 7.23808 8.05193 6.97873 8.15512 6.73796C8.25831 6.49718 8.4097 6.28009 8.59997 6.10004C8.77597 5.90462 8.99231 5.74976 9.23403 5.64616C9.47575 5.54257 9.73709 5.49271 9.99997 5.50004C10.2629 5.49271 10.5242 5.54257 10.7659 5.64616C11.0076 5.74976 11.224 5.90462 11.4 6.10004C11.5902 6.28009 11.7416 6.49718 11.8448 6.73796C11.948 6.97873 12.0008 7.23808 12 7.50004Z" fill="#FF0000" stroke="black"/>
<path d="M14.9 7.15V7.3C14.8574 8.54517 14.3384 9.72647 13.45 10.6C12.9971 11.0514 12.4587 11.4077 11.8662 11.6481C11.2738 11.8885 10.6393 12.0082 9.99997 12C9.08494 12.014 8.18427 11.7715 7.39997 11.3C7.09424 11.0953 6.80952 10.8608 6.54997 10.6C6.09336 10.151 5.73357 9.6133 5.49279 9.01994C5.252 8.42658 5.13533 7.79018 5.14997 7.15V7C5.14326 6.43585 5.24511 5.87568 5.44997 5.35C5.14124 6.02405 4.98747 6.75871 4.99997 7.5V7.65C5.00096 8.27311 5.12517 8.88988 5.36543 9.46481C5.6057 10.0397 5.95729 10.5615 6.39997 11C6.64126 11.2462 6.90964 11.4642 7.19997 11.65L7.59997 11.95C7.7062 11.9864 7.80709 12.0369 7.89997 12.1C7.98622 12.145 8.0697 12.1951 8.14997 12.25C8.2562 12.2864 8.35709 12.3369 8.44997 12.4L8.74997 12.6C8.88947 12.7094 9.02299 12.8263 9.14997 12.95C9.19089 12.9945 9.22463 13.0451 9.24997 13.1C9.34513 13.2256 9.4288 13.3594 9.49997 13.5C9.56444 13.6274 9.61474 13.7616 9.64997 13.9C9.65122 13.9192 9.65629 13.9379 9.66487 13.955C9.67346 13.9722 9.68539 13.9875 9.69997 14C9.7349 14.0466 9.7802 14.0844 9.83227 14.1104C9.88434 14.1364 9.94176 14.15 9.99997 14.15C10.0582 14.15 10.1156 14.1364 10.1677 14.1104C10.2197 14.0844 10.265 14.0466 10.3 14C10.3146 13.9875 10.3265 13.9722 10.3351 13.955C10.3437 13.9379 10.3487 13.9192 10.35 13.9C10.4144 13.7725 10.4647 13.6384 10.5 13.5C10.5711 13.3594 10.6548 13.2256 10.75 13.1C10.7819 13.0347 10.8347 12.9819 10.9 12.95C10.999 12.8169 11.1169 12.699 11.25 12.6C11.3706 12.5406 11.4875 12.4738 11.6 12.4C11.6704 12.3311 11.756 12.2797 11.85 12.25C11.9429 12.1869 12.0437 12.1364 12.15 12.1C12.2204 12.0311 12.306 11.9797 12.4 11.95C12.8358 11.6814 13.2385 11.3625 13.6 11C14.0599 10.5431 14.4213 9.99679 14.6621 9.39486C14.9029 8.79292 15.0179 8.14806 15 7.5V7.3C14.9792 6.51332 14.7737 5.74256 14.4 5.05C14.7369 5.69819 14.9086 6.41952 14.9 7.15ZM11.75 9.05C11.9913 8.81711 12.1824 8.53724 12.3114 8.22766C12.4403 7.91808 12.5045 7.58535 12.5 7.25C12.5075 6.92161 12.4445 6.59543 12.3151 6.29352C12.1857 5.9916 11.993 5.72099 11.75 5.5C11.529 5.25698 11.2584 5.06426 10.9565 4.93487C10.6545 4.80548 10.3284 4.74243 9.99997 4.75C9.67159 4.74243 9.34541 4.80548 9.04349 4.93487C8.74158 5.06426 8.47097 5.25698 8.24997 5.5C8.00696 5.72099 7.81424 5.9916 7.68485 6.29352C7.55545 6.59543 7.49241 6.92161 7.49997 7.25C7.49541 7.58535 7.5596 7.91808 7.68859 8.22766C7.81758 8.53724 8.00864 8.81711 8.24997 9.05C8.47843 9.27997 8.75155 9.46072 9.05253 9.58111C9.3535 9.7015 9.67594 9.75898 9.99997 9.75C10.324 9.75898 10.6464 9.7015 10.9474 9.58111C11.2484 9.46072 11.5215 9.27997 11.75 9.05ZM12 7.5C12.0043 7.76986 11.9534 8.03776 11.8502 8.28715C11.747 8.53654 11.5938 8.76213 11.4 8.95C11.2163 9.13214 10.9974 9.27486 10.7567 9.36944C10.516 9.46401 10.2585 9.50844 9.99997 9.5C9.74147 9.50844 9.48396 9.46401 9.24323 9.36944C9.0025 9.27486 8.78361 9.13214 8.59997 8.95C8.40619 8.76213 8.25298 8.53654 8.14978 8.28715C8.04658 8.03776 7.9956 7.76986 7.99997 7.5C7.99913 7.23805 8.05193 6.97869 8.15512 6.73792C8.25831 6.49715 8.4097 6.28005 8.59997 6.1C8.77597 5.90458 8.99231 5.74972 9.23403 5.64613C9.47575 5.54253 9.73709 5.49267 9.99997 5.5C10.2629 5.49267 10.5242 5.54253 10.7659 5.64613C11.0076 5.74972 11.224 5.90458 11.4 6.1C11.5902 6.28005 11.7416 6.49715 11.8448 6.73792C11.948 6.97869 12.0008 7.23805 12 7.5Z" fill="#CE2000"/>
<path d="M14.4 5.05004C14.1874 4.63181 13.9182 4.24484 13.6 3.90004C12.6305 2.97858 11.3373 2.47568 10 2.50004C8.79807 2.47745 7.62763 2.88533 6.70003 3.65004L6.65003 3.70004C6.57342 3.7747 6.48969 3.84169 6.40003 3.90004C6.00437 4.32674 5.68323 4.8169 5.45003 5.35004C5.24517 5.87572 5.14332 6.43589 5.15003 7.00004V7.15004C5.13539 7.79022 5.25206 8.42662 5.49284 9.01998C5.73363 9.61334 6.09342 10.1511 6.55003 10.6C6.80957 10.8608 7.09429 11.0953 7.40003 11.3C8.18432 11.7716 9.085 12.0141 10 12C10.6393 12.0082 11.2739 11.8886 11.8663 11.6482C12.4587 11.4078 12.9972 11.0514 13.45 10.6C14.3384 9.7265 14.8575 8.54521 14.9 7.30004V7.15004C14.9087 6.41956 14.737 5.69823 14.4 5.05004ZM14 6.85004V7.10004C13.9435 8.07719 13.5349 9.00081 12.85 9.70004C12.475 10.0711 12.0298 10.3639 11.5405 10.5613C11.0513 10.7587 10.5276 10.8569 10 10.85C9.47951 10.8598 8.96253 10.7627 8.48096 10.565C7.99939 10.3672 7.56345 10.0728 7.20003 9.70004C6.48858 9.0142 6.06036 8.08639 6.00003 7.10004V6.85004C5.99188 6.32518 6.09455 5.8045 6.30133 5.32202C6.50811 4.83954 6.81434 4.40611 7.20003 4.05004C7.83704 3.36401 8.71529 2.95177 9.65003 2.90004C9.76426 2.86934 9.88177 2.85255 10 2.85004C10.5319 2.84477 11.0591 2.94853 11.5493 3.15492C12.0395 3.36131 12.4821 3.66594 12.85 4.05004C13.2228 4.41345 13.5172 4.84939 13.7149 5.33096C13.9127 5.81253 14.0098 6.32952 14 6.85004Z" fill="#FF3B00"/>
<path d="M12.85 9.70006C13.5349 9.00083 13.9434 8.07722 14 7.10006C13.9496 6.13603 13.5392 5.22604 12.85 4.55006C12.4821 4.16597 12.0394 3.86133 11.5493 3.65494C11.0591 3.44855 10.5318 3.34479 10 3.35006C9.47514 3.34191 8.95447 3.44458 8.47199 3.65136C7.98951 3.85814 7.55607 4.16437 7.2 4.55006C6.48444 5.21227 6.05417 6.1266 6 7.10006C6.06033 8.08641 6.48855 9.01422 7.2 9.70006C7.56342 10.0728 7.99936 10.3672 8.48093 10.565C8.9625 10.7628 9.47949 10.8598 10 10.8501C10.5276 10.8569 11.0512 10.7588 11.5405 10.5613C12.0298 10.3639 12.4749 10.0711 12.85 9.70006ZM12.5 7.25006C12.5046 7.58541 12.4404 7.91814 12.3114 8.22772C12.1824 8.5373 11.9913 8.81717 11.75 9.05006C11.5215 9.28003 11.2484 9.46078 10.9474 9.58117C10.6465 9.70156 10.324 9.75904 10 9.75006C9.67597 9.75904 9.35353 9.70156 9.05255 9.58117C8.75158 9.46078 8.47845 9.28003 8.25 9.05006C8.00867 8.81717 7.81761 8.5373 7.68862 8.22772C7.55963 7.91814 7.49543 7.58541 7.5 7.25006C7.49244 6.92167 7.55548 6.59549 7.68487 6.29358C7.81426 5.99166 8.00699 5.72105 8.25 5.50006C8.471 5.25704 8.7416 5.06432 9.04352 4.93493C9.34543 4.80554 9.67161 4.74249 10 4.75006C10.3284 4.74249 10.6546 4.80554 10.9565 4.93493C11.2584 5.06432 11.529 5.25704 11.75 5.50006C11.993 5.72105 12.1857 5.99166 12.3151 6.29358C12.4445 6.59549 12.5076 6.92167 12.5 7.25006Z" fill="#FF4F19"/>
<path d="M11.4 8.95009C11.5938 8.76223 11.747 8.53663 11.8502 8.28724C11.9534 8.03785 12.0044 7.76996 12 7.50009C12.0009 7.23814 11.9481 6.97879 11.8449 6.73802C11.7417 6.49724 11.5903 6.28014 11.4 6.10009C11.224 5.90468 11.0077 5.74982 10.766 5.64622C10.5242 5.54263 10.2629 5.49277 10 5.50009C9.73713 5.49277 9.47579 5.54263 9.23407 5.64622C8.99235 5.74982 8.77601 5.90468 8.60002 6.10009C8.40975 6.28014 8.25835 6.49724 8.15517 6.73802C8.05198 6.97879 7.99918 7.23814 8.00002 7.50009C7.99564 7.76996 8.04663 8.03785 8.14982 8.28724C8.25302 8.53663 8.40624 8.76223 8.60002 8.95009C8.78365 9.13223 9.00254 9.27496 9.24327 9.36953C9.484 9.46411 9.74151 9.50853 10 9.50009C10.2585 9.50853 10.516 9.46411 10.7568 9.36953C10.9975 9.27496 11.2164 9.13223 11.4 8.95009Z" fill="black"/>
<path d="M14 7.10004V6.85004C14.0097 6.32953 13.9127 5.81254 13.7149 5.33097C13.5171 4.8494 13.2227 4.41346 12.85 4.05004C12.4821 3.66595 12.0394 3.36132 11.5492 3.15493C11.059 2.94854 10.5318 2.84478 9.99996 2.85004C9.88171 2.85256 9.76419 2.86935 9.64996 2.90004C8.71522 2.95178 7.83697 3.36402 7.19996 4.05004C6.81427 4.40612 6.50804 4.83955 6.30126 5.32203C6.09449 5.80451 5.99182 6.32518 5.99996 6.85004V7.10004C6.05413 6.12659 6.4844 5.21226 7.19996 4.55004C7.55603 4.16436 7.98947 3.85812 8.47195 3.65135C8.95443 3.44457 9.4751 3.3419 9.99996 3.35004C10.5318 3.34478 11.059 3.44854 11.5492 3.65493C12.0394 3.86132 12.4821 4.16595 12.85 4.55004C13.5391 5.22602 13.9495 6.13602 14 7.10004Z" fill="#FF7B52"/>
</svg>

<svg xmlns="http://www.w3.org/2000/svg" width="20" height="20" fill="none" viewBox="0 0 20 20"><path fill="#0057a2" d="M13 13.8q.59.097 1.15.3a.4.4 0 0 0 .15.05l.4.1q.16.056.3.15.263.128.5.3a1.09 1.09 0 0 1 .5.8q0 .7-1.3 1.3a2 2 0 0 0-.4.15q-.64.21-1.3.35a31 31 0 0 1-1.9.15q-.55.05-1.1.05h-.4q-.55 0-1.05-.05a12 12 0 0 1-1.55-.2 6.3 6.3 0 0 1-1.2-.3h-.05Q4 16.3 4 15.5q0-.154.05-.3a.6.6 0 0 1 .15-.25 2.9 2.9 0 0 1 .75-.5q.25-.1.55-.25a1 1 0 0 0 .3-.05A4.6 4.6 0 0 1 7 13.8"/><path stroke="#57b1ff" stroke-linecap="round" stroke-linejoin="round" d="M13 13.8q.59.097 1.15.3a.4.4 0 0 0 .15.05l.4.1q.16.056.3.15.263.128.5.3a1.09 1.09 0 0 1 .5.8q0 .7-1.3 1.3a2 2 0 0 0-.4.15q-.64.21-1.3.35a31 31 0 0 1-1.9.15q-.55.05-1.1.05h-.4q-.55 0-1.05-.05a12 12 0 0 1-1.55-.2 6.3 6.3 0 0 1-1.2-.3h-.05Q4 16.3 4 15.5q0-.154.05-.3a.6.6 0 0 1 .15-.25 2.9 2.9 0 0 1 .75-.5q.25-.1.55-.25a1 1 0 0 0 .3-.05A4.6 4.6 0 0 1 7 13.8"/><path fill="red" stroke="#000" d="M14.4 5.05a5.1 5.1 0 0 0-.8-1.15A5.1 5.1 0 0 0 10 2.5a5.04 5.04 0 0 0-3.3 1.15l-.05.05a1.6 1.6 0 0 1-.25.2 5.2 5.2 0 0 0-.95 1.45A5 5 0 0 0 5 7.5v.15A4.73 4.73 0 0 0 6.4 11q.363.37.8.65l.4.3q.16.055.3.15.13.068.25.15.16.056.3.15l.3.2q.21.164.4.35.061.067.1.15.143.19.25.4a2 2 0 0 1 .165.455q.012.026.035.045a.374.374 0 0 0 .6 0 .14.14 0 0 0 .05-.1 2 2 0 0 0 .15-.4q.107-.21.25-.4a.33.33 0 0 1 .15-.15q.15-.2.35-.35.181-.09.35-.2a.6.6 0 0 1 .25-.15q.14-.095.3-.15a.6.6 0 0 1 .25-.15 6.5 6.5 0 0 0 1.2-.95A4.75 4.75 0 0 0 15 7.5v-.2a5 5 0 0 0-.6-2.25ZM12 7.5a1.98 1.98 0 0 1-.6 1.45 1.9 1.9 0 0 1-1.4.55 1.9 1.9 0 0 1-1.4-.55A1.98 1.98 0 0 1 8 7.5a1.92 1.92 0 0 1 .6-1.4 1.82 1.82 0 0 1 1.4-.6 1.82 1.82 0 0 1 1.4.6 1.92 1.92 0 0 1 .6 1.4Z"/><path fill="#ce2000" d="M14.9 7.15v.15a4.86 4.86 0 0 1-1.45 3.3A4.8 4.8 0 0 1 10 12a4.9 4.9 0 0 1-2.6-.7 5.6 5.6 0 0 1-.85-.7 4.69 4.69 0 0 1-1.4-3.45V7a4.4 4.4 0 0 1 .3-1.65A5 5 0 0 0 5 7.5v.15A4.73 4.73 0 0 0 6.4 11q.363.37.8.65l.4.3q.16.055.3.15.13.068.25.15.16.055.3.15l.3.2q.21.164.4.35.061.067.1.15.143.19.25.4a2 2 0 0 1 .165.455q.012.026.035.045a.374.374 0 0 0 .6 0 .14.14 0 0 0 .05-.1q.097-.192.15-.4.107-.21.25-.4a.33.33 0 0 1 .15-.15q.15-.2.35-.35.181-.09.35-.2a.6.6 0 0 1 .25-.15 1.3 1.3 0 0 1 .3-.15.6.6 0 0 1 .25-.15 6.5 6.5 0 0 0 1.2-.95A4.75 4.75 0 0 0 15 7.5v-.2a5 5 0 0 0-.6-2.25 4.44 4.44 0 0 1 .5 2.1m-3.15 1.9a2.46 2.46 0 0 0 .75-1.8 2.3 2.3 0 0 0-.75-1.75A2.3 2.3 0 0 0 10 4.75a2.3 2.3 0 0 0-1.75.75 2.3 2.3 0 0 0-.75 1.75 2.46 2.46 0 0 0 .75 1.8 2.37 2.37 0 0 0 1.75.7 2.37 2.37 0 0 0 1.75-.7M12 7.5a1.98 1.98 0 0 1-.6 1.45 1.9 1.9 0 0 1-1.4.55 1.9 1.9 0 0 1-1.4-.55A1.98 1.98 0 0 1 8 7.5a1.92 1.92 0 0 1 .6-1.4 1.82 1.82 0 0 1 1.4-.6 1.82 1.82 0 0 1 1.4.6 1.92 1.92 0 0 1 .6 1.4"/><path fill="#ff3b00" d="M14.4 5.05a5.1 5.1 0 0 0-.8-1.15A5.1 5.1 0 0 0 10 2.5a5.04 5.04 0 0 0-3.3 1.15l-.05.05a1.6 1.6 0 0 1-.25.2 5.2 5.2 0 0 0-.95 1.45A4.4 4.4 0 0 0 5.15 7v.15a4.69 4.69 0 0 0 1.4 3.45q.39.391.85.7a4.9 4.9 0 0 0 2.6.7 4.8 4.8 0 0 0 3.45-1.4 4.86 4.86 0 0 0 1.45-3.3v-.15a4.44 4.44 0 0 0-.5-2.1m-.4 1.8v.25a4.05 4.05 0 0 1-1.15 2.6A3.98 3.98 0 0 1 10 10.85 3.8 3.8 0 0 1 7.2 9.7 3.95 3.95 0 0 1 6 7.1v-.25a3.73 3.73 0 0 1 1.2-2.8A3.62 3.62 0 0 1 9.65 2.9q.172-.045.35-.05a3.9 3.9 0 0 1 2.85 1.2A3.8 3.8 0 0 1 14 6.85"/><path fill="#ff4f19" d="M12.85 9.7A4.05 4.05 0 0 0 14 7.1a3.85 3.85 0 0 0-1.15-2.55A3.9 3.9 0 0 0 10 3.35a3.73 3.73 0 0 0-2.8 1.2A3.76 3.76 0 0 0 6 7.1c.06.986.489 1.914 1.2 2.6a3.81 3.81 0 0 0 2.8 1.15 3.98 3.98 0 0 0 2.85-1.15m-.35-2.45a2.45 2.45 0 0 1-.75 1.8 2.37 2.37 0 0 1-1.75.7 2.37 2.37 0 0 1-1.75-.7 2.46 2.46 0 0 1-.75-1.8 2.3 2.3 0 0 1 .75-1.75A2.3 2.3 0 0 1 10 4.75a2.3 2.3 0 0 1 1.75.75 2.3 2.3 0 0 1 .75 1.75"/><path fill="#000" d="M11.4 8.95A1.98 1.98 0 0 0 12 7.5a1.92 1.92 0 0 0-.6-1.4 1.82 1.82 0 0 0-1.4-.6 1.82 1.82 0 0 0-1.4.6A1.92 1.92 0 0 0 8 7.5a1.98 1.98 0 0 0 .6 1.45 1.9 1.9 0 0 0 1.4.55 1.9 1.9 0 0 0 1.4-.55"/><path fill="#ff7b52" d="M14 7.1v-.25a3.8 3.8 0 0 0-1.15-2.8A3.9 3.9 0 0 0 10 2.85a1.5 1.5 0 0 0-.35.05A3.62 3.62 0 0 0 7.2 4.05 3.73 3.73 0 0 0 6 6.85v.25a3.76 3.76 0 0 1 1.2-2.55 3.73 3.73 0 0 1 2.8-1.2 3.9 3.9 0 0 1 2.85 1.2c.69.676 1.1 1.586 1.15 2.55"/></svg>
